images/1730.svg

<?xml version="1.0" encoding="UTF-8"?>
<svg xmlns="http://www.w3.org/2000/svg" xmlns:xlink="http://www.w3.org/1999/xlink" width="300pt" height="300pt" viewBox="0 0 300 300" version="1.1">
<defs>
<g>
<symbol overflow="visible" id="glyph0-0">
<path style="stroke:none;" d="M 0.796875 2.828125 L 0.796875 -11.28125 L 8.796875 -11.28125 L 8.796875 2.828125 Z M 1.703125 1.9375 L 7.90625 1.9375 L 7.90625 -10.390625 L 1.703125 -10.390625 Z M 1.703125 1.9375 "/>
</symbol>
<symbol overflow="visible" id="glyph0-1">
<path style="stroke:none;" d="M 6.3125 -10.59375 C 5.164062 -10.59375 4.253906 -10.164062 3.578125 -9.3125 C 2.898438 -8.457031 2.5625 -7.296875 2.5625 -5.828125 C 2.5625 -4.359375 2.898438 -3.195312 3.578125 -2.34375 C 4.253906 -1.488281 5.164062 -1.0625 6.3125 -1.0625 C 7.457031 -1.0625 8.363281 -1.488281 9.03125 -2.34375 C 9.695312 -3.195312 10.03125 -4.359375 10.03125 -5.828125 C 10.03125 -7.296875 9.695312 -8.457031 9.03125 -9.3125 C 8.363281 -10.164062 7.457031 -10.59375 6.3125 -10.59375 Z M 6.3125 -11.875 C 7.945312 -11.875 9.253906 -11.328125 10.234375 -10.234375 C 11.210938 -9.140625 11.703125 -7.671875 11.703125 -5.828125 C 11.703125 -3.984375 11.210938 -2.507812 10.234375 -1.40625 C 9.253906 -0.3125 7.945312 0.234375 6.3125 0.234375 C 4.664062 0.234375 3.351562 -0.3125 2.375 -1.40625 C 1.394531 -2.507812 0.90625 -3.984375 0.90625 -5.828125 C 0.90625 -7.671875 1.394531 -9.140625 2.375 -10.234375 C 3.351562 -11.328125 4.664062 -11.875 6.3125 -11.875 Z M 6.3125 -11.875 "/>
</symbol>
<symbol overflow="visible" id="glyph0-2">
<path style="stroke:none;" d="M 1.578125 -11.671875 L 3.15625 -11.671875 L 3.15625 -6.890625 L 8.890625 -6.890625 L 8.890625 -11.671875 L 10.46875 -11.671875 L 10.46875 0 L 8.890625 0 L 8.890625 -5.5625 L 3.15625 -5.5625 L 3.15625 0 L 1.578125 0 Z M 1.578125 -11.671875 "/>
</symbol>
<symbol overflow="visible" id="glyph0-3">
<path style="stroke:none;" d="M 7.265625 -4.484375 C 7.265625 -5.523438 7.050781 -6.332031 6.625 -6.90625 C 6.195312 -7.476562 5.59375 -7.765625 4.8125 -7.765625 C 4.039062 -7.765625 3.441406 -7.476562 3.015625 -6.90625 C 2.585938 -6.332031 2.375 -5.523438 2.375 -4.484375 C 2.375 -3.441406 2.585938 -2.632812 3.015625 -2.0625 C 3.441406 -1.488281 4.039062 -1.203125 4.8125 -1.203125 C 5.59375 -1.203125 6.195312 -1.488281 6.625 -2.0625 C 7.050781 -2.632812 7.265625 -3.441406 7.265625 -4.484375 Z M 8.703125 -1.09375 C 8.703125 0.40625 8.367188 1.515625 7.703125 2.234375 C 7.046875 2.960938 6.035156 3.328125 4.671875 3.328125 C 4.171875 3.328125 3.695312 3.289062 3.25 3.21875 C 2.800781 3.144531 2.363281 3.03125 1.9375 2.875 L 1.9375 1.46875 C 2.363281 1.695312 2.78125 1.863281 3.1875 1.96875 C 3.601562 2.082031 4.023438 2.140625 4.453125 2.140625 C 5.390625 2.140625 6.09375 1.894531 6.5625 1.40625 C 7.03125 0.914062 7.265625 0.171875 7.265625 -0.828125 L 7.265625 -1.546875 C 6.972656 -1.023438 6.59375 -0.632812 6.125 -0.375 C 5.664062 -0.125 5.113281 0 4.46875 0 C 3.394531 0 2.53125 -0.40625 1.875 -1.21875 C 1.21875 -2.039062 0.890625 -3.128906 0.890625 -4.484375 C 0.890625 -5.835938 1.21875 -6.921875 1.875 -7.734375 C 2.53125 -8.554688 3.394531 -8.96875 4.46875 -8.96875 C 5.113281 -8.96875 5.664062 -8.835938 6.125 -8.578125 C 6.59375 -8.328125 6.972656 -7.941406 7.265625 -7.421875 L 7.265625 -8.75 L 8.703125 -8.75 Z M 8.703125 -1.09375 "/>
</symbol>
<symbol overflow="visible" id="glyph0-4">
<path style="stroke:none;" d="M 10.3125 -10.765625 L 10.3125 -9.109375 C 9.78125 -9.597656 9.210938 -9.960938 8.609375 -10.203125 C 8.003906 -10.453125 7.363281 -10.578125 6.6875 -10.578125 C 5.351562 -10.578125 4.332031 -10.171875 3.625 -9.359375 C 2.914062 -8.546875 2.5625 -7.367188 2.5625 -5.828125 C 2.5625 -4.285156 2.914062 -3.109375 3.625 -2.296875 C 4.332031 -1.484375 5.351562 -1.078125 6.6875 -1.078125 C 7.363281 -1.078125 8.003906 -1.195312 8.609375 -1.4375 C 9.210938 -1.6875 9.78125 -2.054688 10.3125 -2.546875 L 10.3125 -0.90625 C 9.757812 -0.53125 9.171875 -0.242188 8.546875 -0.046875 C 7.929688 0.140625 7.28125 0.234375 6.59375 0.234375 C 4.832031 0.234375 3.441406 -0.304688 2.421875 -1.390625 C 1.410156 -2.472656 0.90625 -3.953125 0.90625 -5.828125 C 0.90625 -7.703125 1.410156 -9.175781 2.421875 -10.25 C 3.441406 -11.332031 4.832031 -11.875 6.59375 -11.875 C 7.289062 -11.875 7.945312 -11.78125 8.5625 -11.59375 C 9.1875 -11.414062 9.769531 -11.140625 10.3125 -10.765625 Z M 10.3125 -10.765625 "/>
</symbol>
<symbol overflow="visible" id="glyph0-5">
<path style="stroke:none;" d="M 1.515625 -12.15625 L 2.953125 -12.15625 L 2.953125 0 L 1.515625 0 Z M 1.515625 -12.15625 "/>
</symbol>
</g>
</defs>
<g id="surface30481">
<rect x="0" y="0" width="300" height="300" style="fill:rgb(100%,100%,100%);fill-opacity:1;stroke:none;"/>
<path style="fill:none;stroke-width:1.2;stroke-linecap:butt;stroke-linejoin:miter;stroke:rgb(0%,0%,0%);stroke-opacity:1;stroke-miterlimit:10;" d="M 178.6875 183.125 L 140.4375 183.125 "/>
<path style="fill:none;stroke-width:1.2;stroke-linecap:butt;stroke-linejoin:miter;stroke:rgb(0%,0%,0%);stroke-opacity:1;stroke-miterlimit:10;" d="M 174.863281 174.125 L 144.261719 174.125 "/>
<path style="fill:none;stroke-width:1.2;stroke-linecap:butt;stroke-linejoin:miter;stroke:rgb(0%,0%,0%);stroke-opacity:1;stroke-miterlimit:10;" d="M 197.8125 150 L 178.6875 183.125 "/>
<path style="fill:none;stroke-width:1.2;stroke-linecap:butt;stroke-linejoin:miter;stroke:rgb(0%,0%,0%);stroke-opacity:1;stroke-miterlimit:10;" d="M 140.4375 183.125 L 121.3125 150 "/>
<path style="fill:none;stroke-width:1.2;stroke-linecap:butt;stroke-linejoin:miter;stroke:rgb(0%,0%,0%);stroke-opacity:1;stroke-miterlimit:10;" d="M 121.3125 150 L 140.4375 116.875 "/>
<path style="fill:none;stroke-width:1.2;stroke-linecap:butt;stroke-linejoin:miter;stroke:rgb(0%,0%,0%);stroke-opacity:1;stroke-miterlimit:10;" d="M 131.019531 151.1875 L 146.320312 124.6875 "/>
<path style="fill:none;stroke-width:1.2;stroke-linecap:butt;stroke-linejoin:miter;stroke:rgb(0%,0%,0%);stroke-opacity:1;stroke-miterlimit:10;" d="M 121.3125 150 L 83.0625 150 "/>
<path style="fill:none;stroke-width:1.2;stroke-linecap:butt;stroke-linejoin:miter;stroke:rgb(0%,0%,0%);stroke-opacity:1;stroke-miterlimit:10;" d="M 140.4375 116.875 L 178.6875 116.875 "/>
<path style="fill:none;stroke-width:1.2;stroke-linecap:butt;stroke-linejoin:miter;stroke:rgb(0%,0%,0%);stroke-opacity:1;stroke-miterlimit:10;" d="M 178.6875 116.875 L 197.8125 150 "/>
<path style="fill:none;stroke-width:1.2;stroke-linecap:butt;stroke-linejoin:miter;stroke:rgb(0%,0%,0%);stroke-opacity:1;stroke-miterlimit:10;" d="M 172.804688 124.6875 L 188.105469 151.1875 "/>
<path style="fill:none;stroke-width:1.2;stroke-linecap:butt;stroke-linejoin:miter;stroke:rgb(0%,0%,0%);stroke-opacity:1;stroke-miterlimit:10;" d="M 197.8125 150 L 236.0625 150 "/>
<path style="fill:none;stroke-width:1.2;stroke-linecap:butt;stroke-linejoin:miter;stroke:rgb(0%,0%,0%);stroke-opacity:1;stroke-miterlimit:10;" d="M 239.960938 152.25 L 249.523438 135.6875 "/>
<path style="fill:none;stroke-width:1.2;stroke-linecap:butt;stroke-linejoin:miter;stroke:rgb(100%,0%,0%);stroke-opacity:1;stroke-miterlimit:10;" d="M 249.523438 135.6875 L 259.085938 119.125 "/>
<path style="fill:none;stroke-width:1.2;stroke-linecap:butt;stroke-linejoin:miter;stroke:rgb(0%,0%,0%);stroke-opacity:1;stroke-miterlimit:10;" d="M 232.164062 147.75 L 241.726562 131.1875 "/>
<path style="fill:none;stroke-width:1.2;stroke-linecap:butt;stroke-linejoin:miter;stroke:rgb(100%,0%,0%);stroke-opacity:1;stroke-miterlimit:10;" d="M 241.726562 131.1875 L 251.289062 114.625 "/>
<path style="fill:none;stroke-width:1.2;stroke-linecap:butt;stroke-linejoin:miter;stroke:rgb(0%,0%,0%);stroke-opacity:1;stroke-miterlimit:10;" d="M 236.0625 150 L 245.625 166.5625 "/>
<path style="fill:none;stroke-width:1.2;stroke-linecap:butt;stroke-linejoin:miter;stroke:rgb(100%,0%,0%);stroke-opacity:1;stroke-miterlimit:10;" d="M 245.625 166.5625 L 255.1875 183.125 "/>
<path style=" stroke:none;fill-rule:nonzero;fill:rgb(100%,100%,100%);fill-opacity:1;" d="M 249.1875 107.375 L 262.1875 107.375 L 262.1875 126.375 L 249.1875 126.375 Z M 249.1875 107.375 "/>
<g style="fill:rgb(100%,0%,0%);fill-opacity:1;">
  <use xlink:href="#glyph0-1" x="249.1875" y="122.226562"/>
</g>
<path style=" stroke:none;fill-rule:nonzero;fill:rgb(100%,100%,100%);fill-opacity:1;" d="M 243.1875 173.625 L 268.1875 173.625 L 268.1875 192.625 L 243.1875 192.625 Z M 243.1875 173.625 "/>
<g style="fill:rgb(100%,0%,0%);fill-opacity:1;">
  <use xlink:href="#glyph0-1" x="243.1875" y="188.476562"/>
  <use xlink:href="#glyph0-2" x="255.78125" y="188.476562"/>
</g>
<path style="fill:none;stroke-width:1.2;stroke-linecap:butt;stroke-linejoin:miter;stroke:rgb(0%,0%,0%);stroke-opacity:1;stroke-miterlimit:10;" d="M 83.0625 150 L 63.9375 150 "/>
<path style="fill:none;stroke-width:1.2;stroke-linecap:butt;stroke-linejoin:miter;stroke:rgb(0%,80%,0%);stroke-opacity:1;stroke-miterlimit:10;" d="M 63.9375 150 L 44.8125 150 "/>
<path style=" stroke:none;fill-rule:nonzero;fill:rgb(100%,100%,100%);fill-opacity:1;" d="M 72.0625 140.5 L 95.0625 140.5 L 95.0625 159.5 L 72.0625 159.5 Z M 72.0625 140.5 "/>
<g style="fill:rgb(0%,0%,0%);fill-opacity:1;">
  <use xlink:href="#glyph0-2" x="72.0625" y="155.351562"/>
  <use xlink:href="#glyph0-3" x="84.09375" y="155.351562"/>
</g>
<path style=" stroke:none;fill-rule:nonzero;fill:rgb(100%,100%,100%);fill-opacity:1;" d="M 28.8125 140.5 L 44.8125 140.5 L 44.8125 159.5 L 28.8125 159.5 Z M 28.8125 140.5 "/>
<g style="fill:rgb(0%,80%,0%);fill-opacity:1;">
  <use xlink:href="#glyph0-4" x="28.8125" y="155.351562"/>
  <use xlink:href="#glyph0-5" x="39.984375" y="155.351562"/>
</g>
</g>
</svg>

<svg xmlns="http://www.w3.org/2000/svg" xmlns:xlink="http://www.w3.org/1999/xlink" width="300pt" height="300pt" viewBox="0 0 300 300"><defs><symbol overflow="visible"><path d="M.797 2.828v-14.11h8V2.83zm.906-.89h6.203v-12.33H1.703zm0 0"/></symbol><symbol overflow="visible" id="a"><path d="M6.313-10.594c-1.15 0-2.06.43-2.735 1.28-.68.857-1.015 2.017-1.015 3.486 0 1.47.335 2.633 1.015 3.484.676.856 1.586 1.28 2.735 1.28 1.144.002 2.05-.424 2.718-1.28.665-.85 1-2.015 1-3.484 0-1.47-.335-2.63-1-3.484-.667-.852-1.573-1.282-2.717-1.282zm0-1.28c1.632 0 2.94.546 3.92 1.64.978 1.093 1.47 2.562 1.47 4.406 0 1.844-.492 3.32-1.47 4.422-.98 1.093-2.288 1.64-3.92 1.64-1.65 0-2.96-.546-3.938-1.64-.98-1.102-1.47-2.578-1.47-4.422 0-1.844.49-3.313 1.47-4.406.977-1.094 2.29-1.64 3.938-1.64zm0 0"/></symbol><symbol overflow="visible" id="b"><path d="M1.578-11.672h1.578v4.78H8.89v-4.78h1.58V0H8.89v-5.563H3.157V0H1.578zm0 0"/></symbol><symbol overflow="visible" id="c"><path d="M7.266-4.484c0-1.04-.215-1.848-.64-2.422-.43-.57-1.032-.86-1.814-.86-.773 0-1.37.29-1.796.86-.43.574-.64 1.383-.64 2.422 0 1.043.21 1.85.64 2.421.425.575 1.023.86 1.796.86.782 0 1.383-.285 1.813-.86.426-.57.64-1.378.64-2.42zm1.437 3.39c0 1.5-.336 2.61-1 3.328-.656.727-1.668 1.094-3.03 1.094-.5 0-.978-.04-1.423-.11-.45-.073-.887-.187-1.313-.343V1.47c.426.225.844.393 1.25.5.415.112.836.17 1.266.17.938 0 1.64-.245 2.11-.734.468-.492.703-1.234.703-2.234v-.72c-.293.525-.672.915-1.14 1.173C5.663-.125 5.112 0 4.468 0 3.394 0 2.53-.406 1.874-1.22 1.22-2.04.89-3.13.89-4.483c0-1.352.33-2.438.985-3.25.656-.82 1.52-1.235 2.594-1.235.643 0 1.194.134 1.655.392.47.25.848.637 1.14 1.156V-8.75h1.438zm0 0"/></symbol><symbol overflow="visible" id="d"><path d="M10.313-10.766v1.657c-.532-.488-1.102-.85-1.704-1.093-.606-.25-1.247-.375-1.922-.375-1.336 0-2.356.406-3.063 1.22-.71.81-1.063 1.99-1.063 3.53 0 1.543.352 2.72 1.063 3.53.707.814 1.727 1.22 3.063 1.22.675 0 1.316-.117 1.92-.36.603-.25 1.173-.617 1.704-1.11v1.642c-.554.375-1.14.664-1.765.86-.617.187-1.266.28-1.953.28-1.762 0-3.153-.54-4.172-1.625C1.41-2.474.906-3.954.906-5.83c0-1.875.504-3.348 1.516-4.422 1.02-1.082 2.41-1.625 4.172-1.625.695 0 1.35.094 1.968.28.626.18 1.208.454 1.75.83zm0 0"/></symbol><symbol overflow="visible" id="e"><path d="M1.516-12.156h1.437V0H1.516zm0 0"/></symbol></defs><g><path fill="#fff" d="M0 0h300v300H0z"/><path d="M178.688 183.125h-38.25M174.863 174.125h-30.6M197.813 150l-19.125 33.125M140.438 183.125L121.313 150M121.313 150l19.124-33.125M131.02 151.188l15.3-26.5M121.313 150h-38.25M140.438 116.875h38.25M178.688 116.875L197.813 150M172.805 124.688l15.3 26.5M197.813 150h38.25M239.96 152.25l9.563-16.563" stroke-width="1.2" stroke="#000" stroke-miterlimit="10" fill="none"/><path d="M249.523 135.688l9.563-16.563" stroke-width="1.2" stroke="#f00" stroke-miterlimit="10" fill="none"/><path d="M232.164 147.75l9.563-16.563" stroke-width="1.2" stroke="#000" stroke-miterlimit="10" fill="none"/><path d="M241.727 131.188l9.562-16.563" stroke-width="1.2" stroke="#f00" stroke-miterlimit="10" fill="none"/><path d="M236.063 150l9.562 16.563" stroke-width="1.2" stroke="#000" stroke-miterlimit="10" fill="none"/><path d="M245.625 166.563l9.563 16.562" stroke-width="1.2" stroke="#f00" stroke-miterlimit="10" fill="none"/><path d="M249.188 107.375h13v19h-13zm0 0" fill="#fff"/><use xlink:href="#a" x="249.188" y="122.227" fill="#f00"/><path d="M243.188 173.625h25v19h-25zm0 0" fill="#fff"/><g fill="#f00"><use xlink:href="#a" x="243.188" y="188.477"/><use xlink:href="#b" x="255.781" y="188.477"/></g><path d="M83.063 150H63.936" stroke-width="1.2" stroke="#000" stroke-miterlimit="10" fill="none"/><path d="M63.938 150H44.81" stroke-width="1.2" stroke="#0c0" stroke-miterlimit="10" fill="none"/><path d="M72.063 140.5h23v19h-23zm0 0" fill="#fff"/><use xlink:href="#b" x="72.063" y="155.352"/><use xlink:href="#c" x="84.094" y="155.352"/><path d="M28.813 140.5h16v19h-16zm0 0" fill="#fff"/><g fill="#0c0"><use xlink:href="#d" x="28.813" y="155.352"/><use xlink:href="#e" x="39.984" y="155.352"/></g></g></svg>
